;FLAVOR:Marlin
;TIME:766
;Filament used: 0.667257m
;Layer height: 0.2
;Generated with Cura_SteamEngine master
M140 S110
M105
M190 S110
M104 S240
M105
M109 S240
M82 ;absolute extrusion mode
G21 ;metric values
G90 ;absolute positioning
M82 ;set extruder to absolute mode
M107 ;start with the fan off
G28 X0 Y0 ;move X/Y to min endstops
G28 Z0 ;move Z to min endstops
G1 Z15.0 F9000 ;move the platform down 15mm
G92 E0 ;zero the extruded length
G1 F200 E6 ;extrude 6 mm of feed stock
G92 E0 ;zero the extruded length again
G1 F9000
;Put printing message on LCD screen
M117 Printing...
G92 E0
G1 F1500 E-6.5
;LAYER_COUNT:34
;LAYER:0
M107
G0 F3600 X78.774 Y81.031 Z0.3
;TYPE:SKIRT
G1 F1500 E0
G1 F900 X79.393 Y80.517 E0.06623
G1 X80.061 Y80.068 E0.13249
G1 X80.769 Y79.686 E0.19871
G1 X81.512 Y79.377 E0.26495
G1 X82.282 Y79.143 E0.3312
G1 X83.071 Y78.986 E0.39742
G1 X84.25 Y78.9 E0.49474
G1 X105.75 Y78.9 E2.26459
G1 X106.554 Y78.94 E2.33086
G1 X107.35 Y79.06 E2.39712
G1 X108.13 Y79.257 E2.46335
G1 X108.886 Y79.532 E2.52957
G1 X109.612 Y79.88 E2.59585
G1 X110.299 Y80.298 E2.66204
G1 X110.942 Y80.783 E2.72834
G1 X111.533 Y81.328 E2.79452
G1 X112.067 Y81.93 E2.86077
G1 X112.539 Y82.582 E2.92703
G1 X112.944 Y83.278 E2.99331
G1 X113.278 Y84.01 E3.05955
G1 X113.537 Y84.772 E3.1258
G1 X113.72 Y85.555 E3.19199
G1 X113.824 Y86.353 E3.25824
G1 X113.848 Y87.158 E3.32453
G1 X113.793 Y87.96 E3.39071
G1 X113.658 Y88.754 E3.45701
G1 X113.445 Y89.53 E3.52325
G1 X112.995 Y90.622 E3.62047
G1 X111.995 Y92.622 E3.80455
G1 X111.6 Y93.323 E3.87078
G1 X111.137 Y93.982 E3.93708
G1 X111.134 Y93.985 E3.93743
G1 X110.052 Y103.881 E4.75691
G1 X109.925 Y104.675 E4.8231
G1 X109.72 Y105.453 E4.88933
G1 X109.568 Y105.859 E4.92502
G1 X109.612 Y105.88 E4.92903
G1 X110.299 Y106.298 E4.99523
G1 X110.942 Y106.783 E5.06153
G1 X111.533 Y107.328 E5.12771
G1 X112.067 Y107.93 E5.19395
G1 X112.539 Y108.582 E5.26021
G1 X112.944 Y109.278 E5.3265
G1 X113.278 Y110.01 E5.39273
G1 X113.537 Y110.772 E5.45899
G1 X113.72 Y111.555 E5.52518
G1 X113.824 Y112.353 E5.59142
G1 X113.848 Y113.158 E5.65772
G1 X113.793 Y113.96 E5.7239
G1 X113.658 Y114.754 E5.79019
G1 X113.445 Y115.53 E5.85644
G1 X112.995 Y116.622 E5.95366
G1 X111.995 Y118.622 E6.13773
G1 X111.6 Y119.323 E6.20397
G1 X111.137 Y119.982 E6.27027
G1 X111.134 Y119.985 E6.27062
G1 X110.052 Y129.881 E7.0901
G1 X109.925 Y130.675 E7.15629
G1 X109.72 Y131.453 E7.22252
G1 X109.438 Y132.207 E7.28879
G1 X109.083 Y132.929 E7.35502
G1 X108.658 Y133.613 E7.42131
G1 X108.168 Y134.251 E7.48753
G1 X107.616 Y134.837 E7.5538
G1 X107.009 Y135.365 E7.62003
G1 X106.353 Y135.831 E7.68627
G1 X105.654 Y136.229 E7.75248
G1 X104.918 Y136.556 E7.81878
G1 X104.154 Y136.808 E7.885
G1 X103.369 Y136.984 E7.95123
G1 X102.57 Y137.08 E8.01747
G1 X102 Y137.1 E8.06442
G1 X98.5 Y137.1 E8.35254
G1 X97.696 Y137.06 E8.41881
G1 X96.9 Y136.94 E8.48507
G1 X96.12 Y136.743 E8.5513
G1 X95.364 Y136.468 E8.61752
G1 X95.002 Y136.294 E8.65058
G1 X94.49 Y136.528 E8.69692
G1 X93.728 Y136.787 E8.76317
G1 X92.945 Y136.97 E8.82937
G1 X92.147 Y137.074 E8.89561
G1 X91.5 Y137.1 E8.94892
G1 X88 Y137.1 E9.23703
G1 X87.196 Y137.06 E9.3033
G1 X86.4 Y136.94 E9.36956
G1 X85.62 Y136.743 E9.43579
G1 X84.864 Y136.468 E9.50201
G1 X84.138 Y136.12 E9.56829
G1 X83.451 Y135.702 E9.63448
G1 X82.808 Y135.217 E9.70078
G1 X82.217 Y134.672 E9.76696
G1 X81.683 Y134.07 E9.83321
G1 X81.211 Y133.418 E9.89947
G1 X80.806 Y132.722 E9.96575
G1 X80.472 Y131.99 E10.03199
G1 X80.213 Y131.228 E10.09824
G1 X80.03 Y130.445 E10.16443
G1 X79.948 Y129.881 E10.21135
G1 X78.865 Y119.976 E11.03157
G1 X78.461 Y119.418 E11.08828
G1 X78.005 Y118.622 E11.1638
G1 X77.005 Y116.622 E11.34787
G1 X76.681 Y115.886 E11.41407
G1 X76.432 Y115.12 E11.48037
G1 X76.261 Y114.334 E11.54659
G1 X76.168 Y113.535 E11.6128
G1 X76.154 Y112.73 E11.67908
G1 X76.221 Y111.928 E11.74533
G1 X76.367 Y111.137 E11.81155
G1 X76.591 Y110.364 E11.8778
G1 X76.89 Y109.617 E11.94403
G1 X77.262 Y108.903 E12.01031
G1 X77.703 Y108.23 E12.07654
G1 X78.209 Y107.604 E12.1428
G1 X78.774 Y107.031 E12.20904
G1 X79.393 Y106.517 E12.27528
G1 X80.061 Y106.068 E12.34153
G1 X80.431 Y105.869 E12.37612
G1 X80.213 Y105.228 E12.43185
G1 X80.03 Y104.445 E12.49804
G1 X79.948 Y103.881 E12.54496
G1 X78.865 Y93.976 E13.36519
G1 X78.461 Y93.418 E13.4219
G1 X78.005 Y92.622 E13.49741
G1 X77.005 Y90.622 E13.68148
G1 X76.681 Y89.886 E13.74768
G1 X76.432 Y89.12 E13.81398
G1 X76.261 Y88.334 E13.8802
G1 X76.168 Y87.535 E13.94642
G1 X76.154 Y86.73 E14.01269
G1 X76.221 Y85.928 E14.07894
G1 X76.367 Y85.137 E14.14516
G1 X76.591 Y84.364 E14.21141
G1 X76.89 Y83.617 E14.27764
G1 X77.262 Y82.903 E14.34392
G1 X77.703 Y82.23 E14.41015
G1 X78.209 Y81.604 E14.47641
G1 X78.774 Y81.031 E14.54266
G0 F3600 X79.466 Y81.224
G1 F900 X80.087 Y80.761 E14.60642
G1 X80.753 Y80.365 E14.6702
G1 X81.456 Y80.04 E14.73396
G1 X82.188 Y79.789 E14.79766
G1 X82.943 Y79.615 E14.86144
G1 X83.711 Y79.519 E14.92515
G1 X84.25 Y79.5 E14.96955
G1 X105.75 Y79.5 E16.73941
G1 X106.523 Y79.54 E16.80312
G1 X107.288 Y79.659 E16.86686
G1 X108.037 Y79.857 E16.93063
G1 X108.761 Y80.131 E16.99435
G1 X109.454 Y80.478 E17.05815
G1 X110.106 Y80.895 E17.12186
G1 X110.712 Y81.377 E17.1856
G1 X111.266 Y81.918 E17.24935
G1 X111.76 Y82.514 E17.31307
G1 X112.191 Y83.158 E17.37686
G1 X112.553 Y83.842 E17.44057
G1 X112.842 Y84.56 E17.50428
G1 X113.056 Y85.305 E17.56809
G1 X113.192 Y86.067 E17.63181
G1 X113.248 Y86.839 E17.69552
G1 X113.225 Y87.613 E17.75927
G1 X113.122 Y88.381 E17.82305
G1 X112.94 Y89.133 E17.88674
G1 X112.682 Y89.863 E17.95048
G1 X112.458 Y90.354 E17.9949
G1 X111.458 Y92.354 E18.17897
G1 X111.077 Y93.028 E18.24271
G1 X110.628 Y93.659 E18.30646
G1 X110.558 Y93.739 E18.31521
G1 X109.456 Y103.815 E19.1496
G1 X109.332 Y104.58 E19.2134
G1 X109.13 Y105.327 E19.2771
G1 X108.852 Y106.05 E19.34086
G1 X108.801 Y106.151 E19.35018
G1 X109.454 Y106.478 E19.41029
G1 X110.106 Y106.895 E19.474
G1 X110.712 Y107.377 E19.53774
G1 X111.266 Y107.918 E19.60149
G1 X111.76 Y108.514 E19.66521
G1 X112.191 Y109.158 E19.729
G1 X112.553 Y109.842 E19.79271
G1 X112.842 Y110.56 E19.85642
G1 X113.056 Y111.305 E19.92023
G1 X113.192 Y112.067 E19.98395
G1 X113.248 Y112.839 E20.04766
G1 X113.225 Y113.613 E20.11141
G1 X113.122 Y114.381 E20.17519
G1 X112.94 Y115.133 E20.23888
G1 X112.682 Y115.863 E20.30262
G1 X112.458 Y116.354 E20.34705
G1 X111.458 Y118.354 E20.53112
G1 X111.077 Y119.028 E20.59485
G1 X110.628 Y119.659 E20.6586
G1 X110.558 Y119.739 E20.66735
G1 X109.456 Y129.815 E21.50174
G1 X109.332 Y130.58 E21.56554
G1 X109.13 Y131.327 E21.62924
G1 X108.852 Y132.05 E21.693
G1 X108.501 Y132.74 E21.75673
G1 X108.081 Y133.391 E21.8205
G1 X107.595 Y133.994 E21.88426
G1 X107.051 Y134.544 E21.94794
G1 X106.452 Y135.036 E22.01175
G1 X105.806 Y135.462 E22.07545
G1 X105.119 Y135.82 E22.13922
G1 X104.4 Y136.106 E22.20292
G1 X103.654 Y136.315 E22.26669
G1 X102.891 Y136.447 E22.33043
G1 X102 Y136.5 E22.40391
G1 X98.5 Y136.5 E22.69203
G1 X97.727 Y136.46 E22.75574
G1 X96.962 Y136.341 E22.81947
G1 X96.213 Y136.143 E22.88325
G1 X95.489 Y135.869 E22.94697
G1 X94.998 Y135.623 E22.99218
G1 X94.658 Y135.803 E23.02385
G1 X93.94 Y136.092 E23.08756
G1 X93.195 Y136.306 E23.15137
G1 X92.433 Y136.442 E23.21509
G1 X91.5 Y136.5 E23.29204
G1 X88 Y136.5 E23.58016
G1 X87.227 Y136.46 E23.64387
G1 X86.462 Y136.341 E23.7076
G1 X85.713 Y136.143 E23.77138
G1 X84.989 Y135.869 E23.8351
G1 X84.296 Y135.522 E23.8989
G1 X83.644 Y135.105 E23.96261
G1 X83.038 Y134.623 E24.02635
G1 X82.484 Y134.082 E24.0901
G1 X81.99 Y133.486 E24.15382
G1 X81.559 Y132.842 E24.21761
G1 X81.197 Y132.158 E24.28132
G1 X80.908 Y131.44 E24.34503
G1 X80.694 Y130.695 E24.40884
G1 X80.544 Y129.815 E24.48232
G1 X79.441 Y119.728 E25.31762
G1 X79.24 Y119.486 E25.34352
G1 X78.809 Y118.842 E25.40731
G1 X78.542 Y118.354 E25.4531
G1 X77.542 Y116.354 E25.63717
G1 X77.232 Y115.645 E25.70087
G1 X76.996 Y114.907 E25.76465
G1 X76.839 Y114.149 E25.82837
G1 X76.76 Y113.378 E25.89217
G1 X76.76 Y112.604 E25.95589
G1 X76.841 Y111.834 E26.01962
G1 X77.001 Y111.076 E26.0834
G1 X77.238 Y110.339 E26.14712
G1 X77.55 Y109.63 E26.21089
G1 X77.933 Y108.957 E26.27463
G1 X78.383 Y108.328 E26.3383
G1 X78.896 Y107.748 E26.40204
G1 X79.466 Y107.224 E26.46578
G1 X80.087 Y106.761 E26.52954
G1 X80.753 Y106.365 E26.59332
G1 X81.198 Y106.159 E26.63369
G1 X81.197 Y106.158 E26.63381
G1 X80.908 Y105.44 E26.69752
G1 X80.694 Y104.695 E26.76133
G1 X80.544 Y103.815 E26.83481
G1 X79.441 Y93.728 E27.67011
G1 X79.24 Y93.486 E27.69601
G1 X78.809 Y92.842 E27.7598
G1 X78.542 Y92.354 E27.80559
G1 X77.542 Y90.354 E27.98966
G1 X77.232 Y89.645 E28.05336
G1 X76.996 Y88.907 E28.11714
G1 X76.839 Y88.149 E28.18086
G1 X76.76 Y87.378 E28.24466
G1 X76.76 Y86.604 E28.30838
G1 X76.841 Y85.834 E28.37211
G1 X77.001 Y85.076 E28.43589
G1 X77.238 Y84.339 E28.49962
G1 X77.55 Y83.63 E28.56338
G1 X77.933 Y82.957 E28.62712
G1 X78.383 Y82.328 E28.69079
G1 X78.896 Y81.748 E28.75453
G1 X79.466 Y81.224 E28.81827
G0 F3600 X79.586 Y81.915
G1 F900 X80.16 Y81.443 E28.87944
G1 X80.781 Y81.035 E28.94061
G1 X81.442 Y80.697 E29.00172
G1 X82.136 Y80.432 E29.06287
G1 X82.854 Y80.243 E29.12399
G1 X83.588 Y80.132 E29.1851
G1 X84.25 Y80.1 E29.23966
G1 X105.75 Y80.1 E31.00951
G1 X106.492 Y80.14 E31.07068
G1 X107.225 Y80.259 E31.13181
G1 X107.941 Y80.457 E31.19297
G1 X108.631 Y80.73 E31.25405
G1 X109.288 Y81.076 E31.31517
G1 X109.905 Y81.491 E31.37639
G1 X110.473 Y81.969 E31.4375
G1 X110.986 Y82.506 E31.49863
G1 X111.439 Y83.095 E31.5598
G1 X111.825 Y83.729 E31.6209
G1 X112.142 Y84.401 E31.68206
G1 X112.384 Y85.103 E31.74319
G1 X112.55 Y85.827 E31.80434
G1 X112.636 Y86.565 E31.8655
G1 X112.643 Y87.307 E31.92658
G1 X112.57 Y88.046 E31.98771
G1 X112.418 Y88.773 E32.04885
G1 X112.189 Y89.48 E32.11003
G1 X111.922 Y90.086 E32.16454
G1 X110.922 Y92.086 E32.34861
G1 X110.554 Y92.731 E32.40974
G1 X110.119 Y93.333 E32.47088
G1 X109.981 Y93.486 E32.48784
G1 X108.859 Y103.75 E33.33779
G1 X108.739 Y104.483 E33.39894
G1 X108.54 Y105.199 E33.46011
G1 X108.266 Y105.889 E33.52123
G1 X107.962 Y106.465 E33.57484
G1 X108.631 Y106.73 E33.63407
G1 X109.288 Y107.076 E33.6952
G1 X109.905 Y107.491 E33.75641
G1 X110.473 Y107.969 E33.81752
G1 X110.986 Y108.506 E33.87866
G1 X111.439 Y109.095 E33.93982
G1 X111.825 Y109.729 E34.00092
G1 X112.142 Y110.401 E34.06209
G1 X112.384 Y111.103 E34.12321
G1 X112.55 Y111.827 E34.18436
G1 X112.636 Y112.565 E34.24552
G1 X112.643 Y113.307 E34.30661
G1 X112.57 Y114.046 E34.36774
G1 X112.418 Y114.773 E34.42887
G1 X112.189 Y115.48 E34.49005
G1 X111.922 Y116.086 E34.54456
G1 X110.922 Y118.086 E34.72863
G1 X110.554 Y118.731 E34.78976
G1 X110.119 Y119.333 E34.8509
G1 X109.981 Y119.486 E34.86786
G1 X108.859 Y129.75 E35.71782
G1 X108.739 Y130.483 E35.77896
G1 X108.54 Y131.199 E35.84014
G1 X108.266 Y131.889 E35.90125
G1 X107.919 Y132.546 E35.96241
G1 X107.504 Y133.161 E36.02349
G1 X107.025 Y133.729 E36.08465
G1 X106.487 Y134.241 E36.14579
G1 X105.898 Y134.693 E36.20691
G1 X105.264 Y135.079 E36.26801
G1 X104.591 Y135.395 E36.32921
G1 X103.889 Y135.636 E36.39031
G1 X103.165 Y135.801 E36.45144
G1 X102.427 Y135.887 E36.5126
G1 X102 Y135.9 E36.54777
G1 X98.5 Y135.9 E36.83588
G1 X97.758 Y135.86 E36.89705
G1 X97.025 Y135.741 E36.95818
G1 X96.309 Y135.543 E37.01933
G1 X95.619 Y135.27 E37.08042
G1 X94.993 Y134.94 E37.13867
G1 X94.771 Y135.075 E37.16006
G1 X94.099 Y135.392 E37.22122
G1 X93.397 Y135.634 E37.28235
G1 X92.673 Y135.8 E37.34349
G1 X91.935 Y135.886 E37.40466
G1 X91.5 Y135.9 E37.44048
G1 X88 Y135.9 E37.7286
G1 X87.258 Y135.86 E37.78977
G1 X86.525 Y135.741 E37.8509
G1 X85.809 Y135.543 E37.91205
G1 X85.119 Y135.27 E37.97314
G1 X84.462 Y134.924 E38.03426
G1 X83.845 Y134.509 E38.09547
G1 X83.277 Y134.031 E38.15658
G1 X82.764 Y133.494 E38.21772
G1 X82.311 Y132.905 E38.27888
G1 X81.925 Y132.271 E38.33999
G1 X81.608 Y131.599 E38.40115
G1 X81.366 Y130.897 E38.46228
G1 X81.2 Y130.173 E38.52342
G1 X81.141 Y129.75 E38.55858
G1 X80.02 Y119.5 E39.40738
G1 X80.014 Y119.494 E39.40808
G1 X79.561 Y118.905 E39.46924
G1 X79.078 Y118.086 E39.54751
G1 X78.078 Y116.086 E39.73158
G1 X77.783 Y115.405 E39.79268
G1 X77.562 Y114.696 E39.85381
G1 X77.418 Y113.967 E39.91498
G1 X77.354 Y113.227 E39.97612
G1 X77.369 Y112.484 E40.0373
G1 X77.465 Y111.748 E40.0984
G1 X77.638 Y111.026 E40.15952
G1 X77.889 Y110.327 E40.22065
G1 X78.213 Y109.658 E40.28184
G1 X78.607 Y109.029 E40.34294
G1 X79.067 Y108.445 E40.40414
G1 X79.586 Y107.915 E40.4652
G1 X80.16 Y107.443 E40.52638
G1 X80.781 Y107.035 E40.58754
G1 X81.442 Y106.697 E40.64866
G1 X82.044 Y106.467 E40.70171
G1 X81.925 Y106.271 E40.72058
G1 X81.608 Y105.599 E40.78175
G1 X81.366 Y104.897 E40.84287
G1 X81.2 Y104.173 E40.90402
G1 X81.141 Y103.75 E40.93917
G1 X80.02 Y93.5 E41.78797
G1 X80.014 Y93.494 E41.78867
G1 X79.561 Y92.905 E41.84984
G1 X79.078 Y92.086 E41.92811
G1 X78.078 Y90.086 E42.11218
G1 X77.783 Y89.405 E42.17327
G1 X77.562 Y88.696 E42.23441
G1 X77.418 Y87.967 E42.29558
G1 X77.354 Y87.227 E42.35672
G1 X77.369 Y86.484 E42.41789
G1 X77.465 Y85.748 E42.47899
G1 X77.638 Y85.026 E42.54011
G1 X77.889 Y84.327 E42.60125
G1 X78.213 Y83.658 E42.66244
G1 X78.607 Y83.029 E42.72354
G1 X79.067 Y82.445 E42.78473
G1 X79.586 Y81.915 E42.8458
G0 F3600 X79.754 Y82.587
G1 F900 X80.279 Y82.109 E42.90424
G1 X80.854 Y81.694 E42.96262
G1 X81.472 Y81.345 E43.02104
G1 X82.126 Y81.069 E43.07948
G1 X82.806 Y80.868 E43.13785
G1 X83.505 Y80.744 E43.19629
G1 X84.25 Y80.7 E43.25772
G1 X105.75 Y80.7 E45.02758
G1 X106.459 Y80.74 E45.08603
G1 X107.158 Y80.859 E45.1444
G1 X107.84 Y81.057 E45.20286
G1 X108.495 Y81.329 E45.26125
G1 X109.115 Y81.674 E45.31965
G1 X109.693 Y82.086 E45.37808
G1 X110.22 Y82.561 E45.43649
G1 X110.691 Y83.092 E45.49492
G1 X111.099 Y83.672 E45.55329
G1 X111.44 Y84.295 E45.61175
G1 X111.708 Y84.952 E45.67016
G1 X111.9 Y85.635 E45.72857
G1 X112.015 Y86.336 E45.78704
G1 X112.05 Y87.044 E45.8454
G1 X112.005 Y87.753 E45.90388
G1 X111.881 Y88.451 E45.96224
G1 X111.678 Y89.131 E46.02065
G1 X111.385 Y89.817 E46.08206
G1 X110.385 Y91.817 E46.26613
G1 X110.032 Y92.433 E46.32458
G1 X109.613 Y93.006 E46.38301
G1 X109.406 Y93.229 E46.40806
G1 X108.263 Y103.685 E47.27391
G1 X108.146 Y104.385 E47.33233
G1 X107.951 Y105.067 E47.39072
G1 X107.681 Y105.723 E47.44912
G1 X107.339 Y106.345 E47.50755
G1 X106.995 Y106.831 E47.55657
G1 X107.158 Y106.859 E47.57018
G1 X107.84 Y107.057 E47.62864
G1 X108.495 Y107.329 E47.68702
G1 X109.115 Y107.674 E47.74543
G1 X109.693 Y108.086 E47.80386
G1 X110.22 Y108.561 E47.86226
G1 X110.691 Y109.092 E47.92069
G1 X111.099 Y109.672 E47.97907
G1 X111.44 Y110.295 E48.03753
G1 X111.708 Y110.952 E48.09594
G1 X111.9 Y111.635 E48.15435
G1 X112.015 Y112.336 E48.21282
G1 X112.05 Y113.044 E48.27118
G1 X112.005 Y113.753 E48.32966
G1 X111.881 Y114.451 E48.38802
G1 X111.678 Y115.131 E48.44643
G1 X111.385 Y115.817 E48.50784
G1 X110.385 Y117.817 E48.69191
G1 X110.032 Y118.433 E48.75035
G1 X109.613 Y119.006 E48.80879
G1 X109.406 Y119.229 E48.83383
G1 X108.263 Y129.685 E49.69969
G1 X108.146 Y130.385 E49.75811
G1 X107.951 Y131.067 E49.8165
G1 X107.681 Y131.723 E49.8749
G1 X107.339 Y132.345 E49.93333
G1 X106.929 Y132.924 E49.99173
G1 X106.456 Y133.454 E50.05021
G1 X105.927 Y133.926 E50.10857
G1 X105.348 Y134.337 E50.16702
G1 X104.726 Y134.68 E50.22549
G1 X104.07 Y134.95 E50.28389
G1 X103.388 Y135.145 E50.34228
G1 X102.688 Y135.262 E50.4007
G1 X102 Y135.3 E50.45742
G1 X98.5 Y135.3 E50.74554
G1 X97.791 Y135.26 E50.804
G1 X97.092 Y135.141 E50.86236
G1 X96.41 Y134.943 E50.92082
G1 X95.755 Y134.671 E50.97921
G1 X95.135 Y134.326 E51.03761
G1 X94.999 Y134.229 E51.05137
G1 X94.828 Y134.349 E51.06856
G1 X94.205 Y134.69 E51.12703
G1 X93.548 Y134.958 E51.18544
G1 X92.865 Y135.15 E51.24384
G1 X92.164 Y135.265 E51.30232
G1 X91.5 Y135.3 E51.35705
G1 X88 Y135.3 E51.64517
G1 X87.291 Y135.26 E51.70363
G1 X86.592 Y135.141 E51.76199
G1 X85.91 Y134.943 E51.82045
G1 X85.255 Y134.671 E51.87884
G1 X84.635 Y134.326 E51.93724
G1 X84.057 Y133.914 E51.99567
G1 X83.53 Y133.439 E52.05408
G1 X83.059 Y132.908 E52.11251
G1 X82.651 Y132.328 E52.17088
G1 X82.31 Y131.705 E52.22935
G1 X82.042 Y131.048 E52.28776
